X: 14403
T: Galway Belle, The
R: polka
M: 2/4
K: Eminor
|:E>F GA|Be B2|AF DF|EF D2|
E>F GA|Be B2|AG FD|E2 E2:|
e2 B2|ee B2|AF DF|EF D2|
e2 B2|ee B2|AG FD|E2 E2|
e2 B2|ee B2|AF DF|EF D2|
E>F GA|Be B2|AG FD|E2 E2|

